doc/assets/monterail_logo.svg

<?xml version="1.0" encoding="UTF-8" standalone="no"?>
<svg
   width="180"
   viewBox="0 0 179.99999 50"
   fill="currentColor"
   class="desktopLayout:w-206 flex-shrink-0"
   data-v-6a8e395c=""
   data-v-86f6c3b3=""
   version="1.1"
   id="svg26"
   height="50"
   xmlns="http://www.w3.org/2000/svg"
   xmlns:svg="http://www.w3.org/2000/svg">
  <defs
     id="defs30" />
  <rect
     style="fill:#ffffff"
     id="rect296"
     width="179.82422"
     height="49.966259"
     x="0.19103801"
     y="0.11317988"
     ry="24.98313" />
  <g
     clip-path="url(#company_name)"
     class=""
     data-v-86f6c3b3=""
     id="g20"
     transform="translate(12.574369,5.7356772)">
    <path
       d="m 42.3995,14.6447 h 2.7408 v 1.1934 c 0.8636,-0.9759 1.9869,-1.4614 3.3647,-1.4614 1.6675,0 2.9954,0.5917 3.9938,1.775 1.0784,-1.1833 2.5061,-1.775 4.2884,-1.775 1.6824,0 3.0552,0.5209 4.1086,1.5676 1.0534,1.0468 1.5825,2.397 1.5825,4.0456 v 8.5107 h -2.7407 v -8.5107 c 0,-0.9305 -0.2646,-1.6789 -0.7938,-2.2453 -0.5292,-0.5664 -1.248,-0.8546 -2.1566,-0.8546 -0.9086,0 -1.6425,0.2832 -2.1766,0.8546 -0.5342,0.5664 -0.8038,1.3148 -0.8038,2.2453 v 8.5107 h -2.7407 v -8.5107 c 0,-0.9305 -0.2646,-1.6789 -0.7938,-2.2453 -0.5292,-0.5664 -1.2481,-0.8546 -2.1567,-0.8546 -0.9085,0 -1.6424,0.2832 -2.1766,0.8546 -0.5341,0.5664 -0.8037,1.3148 -0.8037,2.2453 v 8.5107 H 42.3945 V 14.6447 Z"
       data-v-86f6c3b3=""
       id="path2" />
    <path
       d="m 66.3426,26.7559 c -1.3329,-1.3451 -1.9969,-3.0746 -1.9969,-5.1833 0,-2.1087 0.669,-3.8281 2.0019,-5.1783 1.3379,-1.3502 3.0403,-2.0227 5.117,-2.0227 2.0768,0 3.7792,0.6725 5.1121,2.0227 1.3329,1.3502 1.9969,3.0746 1.9969,5.1783 0,2.1037 -0.664,3.8382 -1.9919,5.1833 -1.3279,1.3451 -3.0353,2.0177 -5.1171,2.0177 -2.0817,0 -3.7941,-0.6726 -5.122,-2.0177 z m 8.2971,-1.8053 c 0.7988,-0.8546 1.1982,-1.9772 1.1982,-3.378 0,-1.4008 -0.3994,-2.5386 -1.1982,-3.3982 -0.7987,-0.8547 -1.8571,-1.2845 -3.1751,-1.2845 -1.3179,0 -2.3563,0.4298 -3.165,1.2946 -0.8088,0.8596 -1.2181,1.9924 -1.2181,3.3881 0,1.3957 0.4043,2.5234 1.2081,3.378 0.8037,0.8546 1.8621,1.2794 3.175,1.2794 1.313,0 2.3764,-0.4248 3.1751,-1.2794 z"
       data-v-86f6c3b3=""
       id="path4" />
    <path
       d="m 80.6202,14.6447 h 2.7408 v 1.2439 c 0.9185,-1.0113 2.1017,-1.517 3.5545,-1.517 1.6224,0 2.9404,0.5411 3.9538,1.6232 1.0134,1.0822 1.5226,2.483 1.5226,4.1973 v 8.3084 h -2.7407 v -8.3084 c 0,-0.976 -0.2895,-1.7699 -0.8637,-2.3818 -0.5741,-0.6119 -1.3279,-0.9204 -2.2664,-0.9204 -0.9386,0 -1.7423,0.3034 -2.3115,0.9153 -0.5691,0.6068 -0.8536,1.4058 -0.8536,2.3869 v 8.3084 H 80.6152 V 14.6447 Z"
       data-v-86f6c3b3=""
       id="path6" />
    <path
       d="m 102.511,17.1631 h -4.2632 v 6.6852 c 0,1.4058 0.6889,2.1138 2.0722,2.1138 h 2.191 v 2.5436 h -2.376 c -3.0804,0 -4.623,-1.5525 -4.623,-4.6574 V 17.1631 H 93.8945 V 14.6447 H 95.512 V 9.93677 h 2.7408 v 4.70793 h 4.2632 v 2.5184 z"
       data-v-86f6c3b3=""
       id="path8" />
    <path
       d="M 118.032,22.6295 H 106.7 c 0.194,1.1378 0.679,2.0379 1.447,2.7054 0.769,0.6675 1.723,1.0013 2.851,1.0013 1.523,0 2.631,-0.4956 3.325,-1.4867 h 3.045 c -0.419,1.2086 -1.208,2.1643 -2.371,2.8672 -1.163,0.7029 -2.496,1.0569 -4.004,1.0569 -2.087,0 -3.794,-0.6726 -5.122,-2.0177 -1.328,-1.3451 -1.997,-3.0746 -1.997,-5.1833 0,-2.1087 0.669,-3.8281 2.002,-5.1783 1.338,-1.3502 3.04,-2.0227 5.117,-2.0227 2.077,0 3.779,0.6725 5.112,2.0227 1.333,1.3502 1.997,3.0746 1.997,5.1783 0,0.359 -0.025,0.713 -0.08,1.0569 z m -9.795,-4.885 c -0.759,0.622 -1.253,1.4665 -1.482,2.5285 h 8.481 c -0.224,-1.067 -0.709,-1.9065 -1.462,-2.5285 -0.754,-0.622 -1.678,-0.9355 -2.771,-0.9355 -1.093,0 -2.007,0.3135 -2.766,0.9355 z"
       data-v-86f6c3b3=""
       id="path10" />
    <path
       d="m 120.099,14.6448 h 2.74 v 1.8811 l 4.733,-1.8811 v 2.8571 l -4.733,1.9115 v 9.0923 h -2.74 z"
       data-v-86f6c3b3=""
       id="path12" />
    <path
       d="m 130.543,26.7559 c -1.333,-1.3451 -1.997,-3.0746 -1.997,-5.1833 0,-2.1087 0.669,-3.8281 2.002,-5.1783 1.338,-1.3502 3.04,-2.0227 5.117,-2.0227 1.772,0 3.23,0.5916 4.368,1.775 v -1.5019 h 2.741 v 13.8609 h -2.741 v -1.5019 c -1.138,1.1833 -2.596,1.775 -4.368,1.775 -2.087,0 -3.794,-0.6726 -5.122,-2.0177 z m 8.297,-1.8053 c 0.799,-0.8546 1.198,-1.9772 1.198,-3.378 0,-1.4008 -0.399,-2.5386 -1.198,-3.3982 -0.799,-0.8547 -1.857,-1.2845 -3.175,-1.2845 -1.318,0 -2.356,0.4298 -3.165,1.2946 -0.809,0.8596 -1.218,1.9924 -1.218,3.3881 0,1.3957 0.404,2.5234 1.208,3.378 0.804,0.8546 1.862,1.2794 3.175,1.2794 1.313,0 2.376,-0.4248 3.175,-1.2794 z"
       data-v-86f6c3b3=""
       id="path14" />
    <path
       d="m 145.894,9.93677 h 2.74 V 12.713 h -2.74 z m 0,4.70793 h 2.74 v 13.861 h -2.74 z"
       data-v-86f6c3b3=""
       id="path16" />
    <path
       d="M 151.765,28.5057 V 9.93677 h 2.74 V 28.5057 Z"
       data-v-86f6c3b3=""
       id="path18" />
  </g>
  <g
     clip-path="url(#logo)"
     data-v-86f6c3b3=""
     id="g24"
     transform="translate(12.574369,5.7356772)">
    <path
       d="M 24.5718,10.8521 H 7.15389 L 0,18.0935 17.6775,36 31.7407,21.7547 31.7956,21.6991 v -5.2946 l 1.7423,-1.7648 V 9.34513 L 35.2802,7.58028 V 0 L 24.5668,10.8521 Z M 33.6877,3.90898 V 6.91783 L 12.4507,28.4197 10.968,26.9178 Z m -1.7423,7.05942 v 3.0038 L 15.0666,31.0645 13.5839,29.5626 Z M 16.1998,32.2124 30.2031,18.0278 v 3.0038 L 17.6825,33.7143 Z"
       fill="#f50031"
       data-v-86f6c3b3=""
       id="path22" />
  </g>
</svg>

<svg width="155" viewBox="0 0 155 36" fill="currentColor" xmlns="http://www.w3.org/2000/svg" class="desktopLayout:w-206 flex-shrink-0" data-v-6a8e395c="" data-v-86f6c3b3=""><g clip-path="url(#company_name)" class="" data-v-86f6c3b3=""><path d="M42.3995 14.6447H45.1403V15.8381C46.0039 14.8622 47.1272 14.3767 48.505 14.3767C50.1725 14.3767 51.5004 14.9684 52.4988 16.1517C53.5772 14.9684 55.0049 14.3767 56.7872 14.3767C58.4696 14.3767 59.8424 14.8976 60.8958 15.9443C61.9492 16.9911 62.4783 18.3413 62.4783 19.9899V28.5006H59.7376V19.9899C59.7376 19.0594 59.473 18.311 58.9438 17.7446C58.4146 17.1782 57.6958 16.89 56.7872 16.89C55.8786 16.89 55.1447 17.1732 54.6106 17.7446C54.0764 18.311 53.8068 19.0594 53.8068 19.9899V28.5006H51.0661V19.9899C51.0661 19.0594 50.8015 18.311 50.2723 17.7446C49.7431 17.1782 49.0242 16.89 48.1156 16.89C47.2071 16.89 46.4732 17.1732 45.939 17.7446C45.4049 18.311 45.1353 19.0594 45.1353 19.9899V28.5006H42.3945V14.6447H42.3995Z" data-v-86f6c3b3=""></path><path d="M66.3426 26.7559C65.0097 25.4108 64.3457 23.6813 64.3457 21.5726C64.3457 19.4639 65.0147 17.7445 66.3476 16.3943C67.6855 15.0441 69.3879 14.3716 71.4646 14.3716C73.5414 14.3716 75.2438 15.0441 76.5767 16.3943C77.9096 17.7445 78.5736 19.4689 78.5736 21.5726C78.5736 23.6763 77.9096 25.4108 76.5817 26.7559C75.2538 28.101 73.5464 28.7736 71.4646 28.7736C69.3829 28.7736 67.6705 28.101 66.3426 26.7559ZM74.6397 24.9506C75.4385 24.096 75.8379 22.9734 75.8379 21.5726C75.8379 20.1718 75.4385 19.034 74.6397 18.1744C73.841 17.3197 72.7826 16.8899 71.4646 16.8899C70.1467 16.8899 69.1083 17.3197 68.2996 18.1845C67.4908 19.0441 67.0815 20.1769 67.0815 21.5726C67.0815 22.9683 67.4858 24.096 68.2896 24.9506C69.0933 25.8052 70.1517 26.23 71.4646 26.23C72.7776 26.23 73.841 25.8052 74.6397 24.9506Z" data-v-86f6c3b3=""></path><path d="M80.6202 14.6447H83.361V15.8886C84.2795 14.8773 85.4627 14.3716 86.9155 14.3716C88.5379 14.3716 89.8559 14.9127 90.8693 15.9948C91.8827 17.077 92.3919 18.4778 92.3919 20.1921V28.5005H89.6512V20.1921C89.6512 19.2161 89.3617 18.4222 88.7875 17.8103C88.2134 17.1984 87.4596 16.8899 86.5211 16.8899C85.5825 16.8899 84.7788 17.1933 84.2096 17.8052C83.6405 18.412 83.356 19.211 83.356 20.1921V28.5005H80.6152V14.6447H80.6202Z" data-v-86f6c3b3=""></path><path d="M102.511 17.1631H98.2478V23.8483C98.2478 25.2541 98.9367 25.9621 100.32 25.9621H102.511V28.5057H100.135C97.0546 28.5057 95.512 26.9532 95.512 23.8483V17.1631H93.8945V14.6447H95.512V9.93677H98.2528V14.6447H102.516V17.1631H102.511Z" data-v-86f6c3b3=""></path><path d="M118.032 22.6295H106.7C106.894 23.7673 107.379 24.6674 108.147 25.3349C108.916 26.0024 109.87 26.3362 110.998 26.3362C112.521 26.3362 113.629 25.8406 114.323 24.8495H117.368C116.949 26.0581 116.16 27.0138 114.997 27.7167C113.834 28.4196 112.501 28.7736 110.993 28.7736C108.906 28.7736 107.199 28.101 105.871 26.7559C104.543 25.4108 103.874 23.6813 103.874 21.5726C103.874 19.4639 104.543 17.7445 105.876 16.3943C107.214 15.0441 108.916 14.3716 110.993 14.3716C113.07 14.3716 114.772 15.0441 116.105 16.3943C117.438 17.7445 118.102 19.4689 118.102 21.5726C118.102 21.9316 118.077 22.2856 118.022 22.6295H118.032ZM108.237 17.7445C107.478 18.3665 106.984 19.211 106.755 20.273H115.236C115.012 19.206 114.527 18.3665 113.774 17.7445C113.02 17.1225 112.096 16.809 111.003 16.809C109.91 16.809 108.996 17.1225 108.237 17.7445Z" data-v-86f6c3b3=""></path><path d="M120.099 14.6448H122.839V16.5259L127.572 14.6448V17.5019L122.839 19.4134V28.5057H120.099V14.6448Z" data-v-86f6c3b3=""></path><path d="M130.543 26.7559C129.21 25.4108 128.546 23.6813 128.546 21.5726C128.546 19.4639 129.215 17.7445 130.548 16.3943C131.886 15.0441 133.588 14.3716 135.665 14.3716C137.437 14.3716 138.895 14.9632 140.033 16.1466V14.6447H142.774V28.5056H140.033V27.0037C138.895 28.187 137.437 28.7787 135.665 28.7787C133.578 28.7787 131.871 28.1061 130.543 26.761V26.7559ZM138.84 24.9506C139.639 24.096 140.038 22.9734 140.038 21.5726C140.038 20.1718 139.639 19.034 138.84 18.1744C138.041 17.3197 136.983 16.8899 135.665 16.8899C134.347 16.8899 133.309 17.3197 132.5 18.1845C131.691 19.0441 131.282 20.1769 131.282 21.5726C131.282 22.9683 131.686 24.096 132.49 24.9506C133.294 25.8052 134.352 26.23 135.665 26.23C136.978 26.23 138.041 25.8052 138.84 24.9506Z" data-v-86f6c3b3=""></path><path d="M145.894 9.93677H148.634V12.713H145.894V9.93677ZM145.894 14.6447H148.634V28.5057H145.894V14.6447Z" data-v-86f6c3b3=""></path><path d="M151.765 28.5057V9.93677H154.505V28.5057H151.765Z" data-v-86f6c3b3=""></path></g><g clip-path="url(#logo)" data-v-86f6c3b3=""><path d="M24.5718 10.8521H7.15389L0 18.0935L17.6775 36L31.7407 21.7547L31.7956 21.6991V16.4045L33.5379 14.6397V9.34513L35.2802 7.58028V0L24.5668 10.8521H24.5718ZM33.6877 3.90898V6.91783L12.4507 28.4197L10.968 26.9178L33.6877 3.90898ZM31.9454 10.9684V13.9722L15.0666 31.0645L13.5839 29.5626L31.9454 10.9684ZM16.1998 32.2124L30.2031 18.0278V21.0316L17.6825 33.7143L16.1998 32.2124Z" fill="#F50031" data-v-86f6c3b3=""></path></g></svg>
